assets/icons/sidebar/_.svg

<?xml version="1.0" encoding="UTF-8" standalone="no"?>
<svg viewBox="0 0 24 24" width="24" height="24" version="1.1" id="svg22" sodipodi:docname="_.svg" inkscape:version="1.1 (ce6663b3b7, 2021-05-25)"
   xmlns:inkscape="http://www.inkscape.org/namespaces/inkscape"
   xmlns:sodipodi="http://sodipodi.sourceforge.net/DTD/sodipodi-0.dtd"
   xmlns="http://www.w3.org/2000/svg"
   xmlns:svg="http://www.w3.org/2000/svg"
   xmlns:rdf="http://www.w3.org/1999/02/22-rdf-syntax-ns#"
   xmlns:cc="http://creativecommons.org/ns#"
   xmlns:dc="http://purl.org/dc/elements/1.1/">
   <metadata id="metadata28">
      <rdf:RDF>
         <cc:Work rdf:about="">
            <dc:format>image/svg+xml</dc:format>
            <dc:type rdf:resource="http://purl.org/dc/dcmitype/StillImage" />
         </cc:Work>
      </rdf:RDF>
   </metadata>
   <defs id="defs26" />
   <sodipodi:namedview pagecolor="#ffffff" bordercolor="#666666" borderopacity="1" objecttolerance="10" gridtolerance="10" guidetolerance="10" inkscape:pageopacity="0" inkscape:pageshadow="2" inkscape:window-width="1920" inkscape:window-height="1016" id="namedview24" showgrid="true" inkscape:zoom="19.445436" inkscape:cx="24.915872" inkscape:cy="7.019642" inkscape:window-x="0" inkscape:window-y="27" inkscape:window-maximized="1" inkscape:current-layer="g6" inkscape:pagecheckerboard="0">
      <inkscape:grid type="xygrid" id="grid1448" />
      <inkscape:grid type="xygrid" id="grid824" dotted="true" spacingx="0.5" spacingy="0.5" empspacing="10" />
   </sodipodi:namedview>
   <g color="#000000" fill="#808080" id="g6">
      <path id="path859" style="color:#000000;fill:#808080;fill-opacity:1;-inkscape-stroke:none" d="m 5.4550781,3 c -0.9685809,0.00898 -1.717819,0.073269 -2.3378906,0.4453125 -0.4133811,0.2480287 -0.7199379,0.6559075 -0.8886719,1.1621094 -0.1687339,0.5062019 -0.2285156,1.1148011 -0.2285156,1.8925781 v 11 c 0,0.777777 0.059782,1.386376 0.2285156,1.892578 0.168734,0.506202 0.4752908,0.914081 0.8886719,1.16211 0.8267622,0.496058 1.882814,0.445312 3.3828125,0.445312 h 11 c 1.499998,0 2.55605,0.05074 3.382812,-0.445312 0.413382,-0.248029 0.719938,-0.655908 0.888672,-1.16211 0.168734,-0.506202 0.228516,-1.114801 0.228516,-1.892578 v -11 c 0,-0.777777 -0.05978,-1.3863762 -0.228516,-1.8925781 -0.168734,-0.5062019 -0.47529,-0.9140807 -0.888672,-1.1621094 -0.826761,-0.4960573 -1.882814,-0.4453125 -3.382812,-0.4453125 h -11 c -0.3749996,0 -0.7220616,-0.00299 -1.0449219,0 z m -2.4550781,4 h 5 v 13 h -1.5 c -1.4999985,0 -2.443951,-0.05075 -2.8671875,-0.304688 -0.2116183,-0.12697 -0.3425624,-0.281593 -0.4550781,-0.61914 -0.1125158,-0.337547 -0.1777344,-0.853951 -0.1777344,-1.576172 z m 6,0 h 12 v 10.5 c 0,0.722221 -0.06522,1.238625 -0.177734,1.576172 -0.112516,0.337547 -0.243459,0.49217 -0.455078,0.61914 -0.423236,0.253942 -1.367189,0.304688 -2.867188,0.304688 h -8.5 z" sodipodi:nodetypes="sssssssssssssssssscccsssscccsssscc" />
   </g>
</svg>

<svg width="24" height="24" xmlns="http://www.w3.org/2000/svg"><path style="color:#000;fill:gray;fill-opacity:1;-inkscape-stroke:none" d="M5.455 3c-.969.009-1.718.073-2.338.445-.413.248-.72.656-.888 1.162C2.059 5.114 2 5.722 2 6.5v11c0 .778.06 1.386.229 1.893.168.506.475.914.888 1.162C3.944 21.05 5 21 6.5 21h11c1.5 0 2.556.05 3.383-.445.413-.248.72-.656.888-1.162.17-.507.229-1.115.229-1.893v-11c0-.778-.06-1.386-.229-1.893-.168-.506-.475-.914-.888-1.162C20.056 2.95 19 3 17.5 3h-11c-.375 0-.722-.003-1.045 0zM3 7h5v13H6.5c-1.5 0-2.444-.05-2.867-.305-.212-.127-.343-.281-.455-.619C3.065 18.74 3 18.222 3 17.5zm6 0h12v10.5c0 .722-.065 1.239-.178 1.576-.112.338-.243.492-.455.62C19.944 19.948 19 20 17.5 20H9z" color="#000" fill="gray"/></svg>
